X:1
T:Title
%%score { ( 1 3 ) | ( 2 4 ) }
L:1/8
M:4/4
K:G
V:1 treble nm="Grand Piano"
V:3 treble 
V:2 bass 
V:4 bass 
V:1
 z4 z[Q:1/4=100] DDG | B4 z G[EG]E | D4 z GGG | G4- G[GB][Bd][GB] | [FA]>[GB] [FA]2 z DDG | %5
 B4- BG[EG]E | D4 z GGG | G3 [A,DF]/[EG]/ F2- [FB][CFA] |[M:5/8] [B,DG]- [B,DG]3 z | %9
[M:3/8] [DGB][DBd][DGB] |[M:4/4] [DBd]4 z [DB][DB][DG] | %11
 [DB]4 [CFA]2 [DFB][CFA][Q:1/4=98][Q:1/4=97][Q:1/4=95][Q:1/4=94][Q:1/4=92][Q:1/4=91][Q:1/4=89][Q:1/4=88][Q:1/4=86][Q:1/4=84][Q:1/4=83][Q:1/4=81][Q:1/4=80][Q:1/4=78][Q:1/4=77] | %12
[M:7/8] [G,B,DG]-[G,B,DG]-[G,B,DG]- [G,B,DG]3 z |] %13
V:2
 z4 z [G,B,][G,B,][G,B,D] | [G,D]4 z [G,B,D][C,G,][C,G,C] | [G,B,]4 z [G,B,][^D,_B,^C][D,B,C] | %3
 [D,B,D]4- [D,B,D][D,D] [D,D]2 | [D,D]>[D,D] [D,D]2 z [G,B,][G,B,][G,B,E] | %5
 [G,D]4- [G,D][G,B,E][C,G,][C,G,C] | [G,B,]4 z [G,B,][E,B,^C][E,B,C] | [D,B,D]3 z/ B,/ z2 DD, | %8
[M:5/8] G,- G,3 z |[M:3/8] G,G,G, |[M:4/4] G,4 z G,G,G, | G,4 D,2 D,D, | %12
[M:7/8] G,,-G,,-G,,- G,,3 z |] %13
V:3
 x8 | x8 | x8 | x8 | x8 | x8 | x8 | z4 [CA]2 z2 |[M:5/8] x5 |[M:3/8] x3 |[M:4/4] x8 | x8 | %12
[M:7/8] x7 |] %13
V:4
 x8 | x8 | x8 | x8 | x8 | x8 | x8 | z2 z D, D,4 |[M:5/8] x5 |[M:3/8] x3 |[M:4/4] x8 | x8 | %12
[M:7/8] x7 |] %13

